X:1
T: The East End
C:Bruce Shawyer
R:Reel
Q:232
K:Em
M:4/4
L:1/16
|:"Em"E4B,4G2F2E2G2|"D"F2E2D2F2A8|"Em"G2F2E2G2B6c2|"B7"B2A2G2F2 E2^D2^C2B,2|
"Em"E4B,4G2F2E2G2|"D"F2E2D2E2F8|"B7"B2A2G2F2 E2^D2^C2B,2|"Em"E8-E8:|
|:"EM"B4e4g2f2e2g2|"D"f2e2d2e2f8|"C"e2d2c2d2 e2d2c4|"B"B8-B8|
"Em"B4e4g2f2e2g2|"D"f2e2d4A6A2|"B7"B2^c2^d2e2 d2c2B2d2|"Em"e8-e8:|
